X: 2
T: The Eel In The Sink
R: reel
M: 4/4
L: 1/8
K: Amix
AG||:EAAB cedc|B~G3 BGAG|EAAB cdef|gedB BAA2:||a2ea aged|(3Bcd ef g2(3efg|a2ea agab|gedB BAA2|ea~a2 aged|(3Bcd ef g2fg|(3agf (3gfe (3fed ef|gedB BAA2||


Tune 1446	Setting 27934

